X: 10947
T: Drummond Castle
R: jig
M: 6/8
K: Aminor
E|:ABA a3|age g3|c2c edc|Bdg dBG|
ABA a3|age g3|ege deg|1 edB A2E:|2 edB A2B||
|:c2c cec|d2d ded|c2c edc|Bdg dBG|
c2c edc|deg a2g|ege deg|1 edB A2B:|2 edB A2E||

